images/partners/zezman.svg

<svg width="221" height="47" viewBox="0 0 221 47" fill="none" xmlns="http://www.w3.org/2000/svg">
<path d="M36.2481 41.0207H13.8522L15.2624 39.0183H31.5201L23.4189 27.5325L25.0502 25.2243L36.2481 41.0207ZM24.9396 37.2385L20.7369 31.3148L22.3405 29.0621L28.1192 37.2385H24.9396ZM19.6586 32.8444L22.7553 37.2385H16.5342L19.6586 32.8444ZM34.3403 45.2201H5.41924L35.8334 2.55858L37.1605 5.03373L10.4237 42.8006H36.1651L34.3403 45.2201ZM29.1146 4.19941H2.84787L4.64506 1.77988H34.2297L3.78794 44.4692L2.37783 41.9663L29.1146 4.19941ZM19.6586 14.5172L16.2854 9.76154H23.0041L19.6586 14.5172ZM16.9213 18.355L10.8385 9.76154H14.1287L18.5803 16.0467L16.9213 18.355ZM2.79257 5.97929H25.6861L24.276 7.98166H7.40998L15.843 19.8846L14.2393 22.1373L2.79257 5.97929ZM39.2619 5.14497L36.4693 0H3.76029L0 5.08935L13.161 23.6947L0.304141 41.855L3.17966 47H35.1974L39.0407 41.9385L26.1285 23.6947L39.2619 5.14497Z" fill="white"/>
<path d="M46.2852 38.4623L61.6305 14.9901H49.216V9.09424H72.303L57.096 32.5664H71.6948V38.4623H46.2852Z" fill="white"/>
<path d="M75.8691 38.4623V9.09424H95.7489V14.9901H82.2838V20.5244H94.8641V26.2812H82.2838V32.5664H96.0254V38.4623H75.8691Z" fill="white"/>
<path d="M97.8779 38.4623L113.196 14.9901H100.781V9.09424H123.896L108.689 32.5664H123.26V38.4623H97.8779Z" fill="white"/>
<path d="M127.436 38.4622V8.03735L142.809 24.9462L158.181 8.03735V38.4622H151.988V23.5557L142.809 33.9569L133.629 23.5557V38.4622H127.436Z" fill="white"/>
<path d="M172.918 28.2557H180.301L176.596 20.5522L172.918 28.2557ZM161.472 38.4622L176.623 7.42554L191.775 38.4622H184.918L182.651 33.79H170.485L168.218 38.4622H161.472Z" fill="white"/>
<path d="M195.093 38.4621V7.95386L214.641 25.7805V9.09409H221V39.5746L201.452 21.8036V38.4621H195.093Z" fill="white"/>
</svg>

<svg width="221" height="47" fill="none" xmlns="http://www.w3.org/2000/svg">
  <path d="M36.248 41.02H13.852l1.41-2.002H31.52L23.42 27.532l1.631-2.308 11.198 15.797zM24.94 37.239l-4.203-5.923 1.604-2.253 5.778 8.177h-3.18zm-5.281-4.394l3.096 4.395h-6.22l3.124-4.395zM34.34 45.22H5.42L35.832 2.56l1.328 2.475L10.424 42.8h25.741l-1.825 2.42zM29.115 4.2H2.848l1.797-2.42H34.23L3.788 44.47l-1.41-2.504L29.115 4.2zm-9.456 10.317l-3.374-4.755h6.72l-3.346 4.755zm-2.738 3.838L10.84 9.762h3.29l4.451 6.285-1.659 2.308zM2.793 5.979h22.893l-1.41 2.003H7.41l8.433 11.903-1.604 2.252L2.793 5.98zm36.469-.834L36.469 0H3.76L0 5.09l13.161 18.605L.304 41.855 3.18 47h32.017l3.844-5.062-12.912-18.243 13.133-18.55zM46.285 38.462L61.631 14.99H49.215V9.094h23.087L57.096 32.566h14.599v5.896h-25.41zM75.87 38.462V9.094h19.879v5.896H82.284v5.534h12.58v5.757h-12.58v6.285h13.741v5.896H75.87zM97.878 38.462l15.318-23.472h-12.415V9.094h23.115l-15.207 23.472h14.571v5.896H97.878zM127.436 38.462V8.037l15.373 16.91 15.372-16.91v30.425h-6.193V23.556l-9.179 10.4-9.18-10.4v14.906h-6.193zM172.918 28.256h7.383l-3.705-7.704-3.678 7.704zm-11.446 10.206l15.151-31.036 15.152 31.036h-6.857l-2.267-4.672h-12.166l-2.267 4.672h-6.746zM195.093 38.462V7.954l19.548 17.826V9.095H221v30.48l-19.548-17.77v16.658h-6.359z" fill="#fff"/>
</svg>
